X:1
T:Ritornelle in canonischen Weisen
T:Zürne nicht des Herbstes Wind
T:Robert Schumann
T:Friedrich Rückert
T:Zürne nicht des Herbstes Wind
T:Ritornell Op. 65,5
T:CPDL - Creative Commons Attribution Non Commercial 3.0
T:CPDL - Creative Commons Attribution Non Commercial 3.0
C:Robert Schumann
Z:Friedrich Rückert
Z:CPDL - Creative Commons Attribution Non Commercial 3.0
%%score [ 1 2 3 4 ]
L:1/8
Q:1/4=60
M:3/4
K:Bb
V:1 treble-8 nm="Tenor\n1"
V:2 treble-8 nm="Tenor\n2"
V:3 bass nm="Bass\n1"
V:4 bass nm="Bass\n2"
V:1
"^Langsam, zart" z6 | z6 | z2!p! f3 f | (f2 =e2) e2 | _e4 e2 | (d2 g2) gf | (f2- f=e) de | %7
w: ||Zür- ne|nicht _ des|Herbs- tes|Wind, _ der die|Ro- * * sen _|
 f2 f2 z2 | z2 d2 d2 | c4 c2- | c2 f3 f | f2 z2 !>!d2- | d2 c2 cc | c2 f2 z2 | z2 f3 f | %15
w: rau- bet,|son- dern|Ro- sen|_ geh' ge-|schwind pflü-|* cken, eh' er|schnau- bet.|Zür- ne|
 (f2 =e2) e2 | _e4 e2 | (d2 g2) gf | (f2- f=e) de | f2 f2 ||!pp!"^Coda" d>d | %21
w: nicht _ des|Herbs- tes|Wind, _ der die|Ro- * * sen _|rau- bet,|zür- ne|
 c4[Q:1/4=56]"^ritard." c>c | B6 |] %23
w: nicht, zür- ne|nicht,|
V:2
 z2!p! B3 B | (B2 A2) A2 | _A4 A2 | (G2 c2) cB | (B2- BA) GA | B2 B2 z2 | z2 G2 G2 | F4 F2- | %8
w: Zür- ne|nicht _ des|Herbs- tes|Wind, _ der die|Ro- * * sen _|rau- bet,|son- dern|Ro- sen|
 F2 B3 B | B2 z2 !>!G2- | G2 F2 FF | F2 B2 z2 | z2 B3 B | (B2 A2) A2 | _A4 A2 | (G2 c2) cB | %16
w: _ geh' ge-|schwind pflü-|* cken, eh' er|schnau- bet.|Zür- ne|nicht _ des|Herbs- tes|Wind, _ der die|
 (B2- BA) GA | B2 B2 z2 | z2 G2 G2 | F4 ||!pp! B>B | B4 A>A | B6 |] %23
w: Ro- * * sen _|rau- bet,|zür- ne|nicht,|zür- ne|nicht, zür- ne|nicht,|
V:3
 z6 | z6 | z6 | z6 | z6 | z6 | z6 | z6 | z2!p! F,3 F, | (F,2 =E,2) E,2 | _E,4 E,2 | %11
w: ||||||||Zür- ne|nicht _ des|Herbs- tes|
 (D,2 G,2) G,F, | (F,2- F,=E,) D,E, | F,2 F,2 z2 | z2 D,2 D,2 | C,4 C,2- | C,2 F,3 F, | %17
w: Wind, _ der die|Ro- * * sen _|rau- bet,|son- dern|Ro- sen|_ geh' ge-|
 F,2 z2 !>!D,2- | D,2 C,2 C,C, | C,2 F,2 ||!pp! F,>F, | (F,2 =E,2) _E,>E, | D,6 |] %23
w: schwind pflü-|* cken, eh' er|schnau- bet.|Zür- ne|nicht, _ zür- ne|nicht,|
V:4
 z6 | z6 | z6 | z6 | z6 | z6 | z2!p! B,,3 B,, | (B,,2 A,,2) A,,2 | _A,,4 A,,2 | (G,,2 C,2) C,B,, | %10
w: ||||||Zür- ne|nicht _ des|Herbs- tes|Wind, _ der die|
 (B,,2- B,,A,,) G,,A,, | B,,2 B,,2 z2 | z2 G,,2 G,,2 | F,,4 F,,2- | F,,2 B,,3 B,, | %15
w: Ro- * * sen _|rau- bet,|son- dern|Ro- sen|_ geh' ge-|
 B,,2 z2 !>!G,,2- | G,,2 F,,2 F,,F,, | F,,2 B,,2 z2 | z2 B,,3 B,, | (B,,2 A,,2) ||!pp! _A,,>A,, | %21
w: schwind pflü-|* cken, eh' er|schnau- bet.|zür- ne|nicht, _|zür- ne|
 G,,4 _G,,>F,, | B,,6 |] %23
w: nicht, zür- ne|nicht,|

